X: 030946
T: Cow with the Crooked Horn
S: Reavy Collection: "Music of Corktown"
N: variant of "Dowd's #9/Summer in Ireland"
Z: B.Black
M: 4/4
L: 1/8
R: reel
K: D
AG|FGAG GFEF|DFAc dABG|FGAF GFGB|AGFG EDCE|
DFAF GFEF|DFAc dABG|1 FGAF GFGB|AGFE FD :|2\
A2 AF GABd|cdeg fdd||
g|f2 df gfeg|fedf ecAg|f2 df gfec|dcde fdde|
fgfg gfec|defd ecAF|GABG FGAF|1 EDEG FDD :|2\
EDEG FD D2 ||
